X:1
T:Title
%%score 1 2 3 4
L:1/8
M:3/2
K:C
V:1 treble nm="Part_1"
V:2 treble-8 nm="Part_2"
V:3 treble-8 nm="Part_3"
V:4 bass nm="Part_4"
V:1
 c12 | A4 d6 c2 | c6 B2 B2 A2 | c3 _B G2 A2 BAGF | E8 z4 | A4 A4 G2 E2 | F4 E8 | A4 G8 | %8
 c4 _B2 A3 G G2- | G2 F2 G3 E F2 G2- | GFED C4 D3 C | C4 z2 c4 B2 | c4 z2 G2 A2 c2 | B8 G4 | %14
 A2 c3 Acd _BAGF | !fermata!E8 z4 :| A8 G4 | A4 =B6 AB | c8 B4 | B8 c4 | c4 d4 B4 | c2 d2 e6 d2 | %22
 c6 B2 B2 A2 | c4 z4 c4 | B4 A6 GF | =E8 E4 | E4 F2 G4 A2 | B3 c A4 B2 G2- | G2 E2 F4 G4- | %29
 G8 A2 _B2 | c2 d3 cBA B3 A/B/ | c3 B G2 A4 GF | E12 |] %33
V:2
[K:F] c12- | c4 d8 | z2 g2 g8 | e2 f2 z2 c2 B4 | G4 g4 a4 | f8 c4 | z4 c8 | A3 B c3 d e4 | %8
 f4 dgfe f2 d2- | d2 z2 e4 a2 g2 | e4 f4 g4 | e4 c4 g4 | e6 c6 | d4 g4 c4- | c4 A4 B4 | %15
 !fermata!G12 :| f3 e c2 d2 e4 | c4 d4 g4 | f3 e c4 d4 | g8 _a4 | _a4 g8 | e8 c4- | c4 g8 | e4 f8 | %24
 d3 e f8 | g8 c4 | g4 c4 defa | g2 e2 d4 z4 | c4 d4 =B2 e2- | e2 d2 e2 c2 f2 ge- | ed d3 e f2 g4 | %31
 e4 e2 c4 c2 | A3 G !fermata!G8 |] %33
V:3
[K:F] f12- | f8 g4 | e4 d8 | c8 d4 | c12- | c8 z4 | A4 A4 G2 E2 | F4 E8 | A4 G2 c4 B2 | %9
 A4 =B2 c2 d2 B2 | c4 A4 =B3 A/B/ | c3 d e2 f2 d4 | c3 d e4 f4 | g3 f d4 e4 | f3 e c4 d4 | %15
 !fermata!c8 z4 :| c4 f4 g2 e2 | f4 g3 f d4 | c2 e4 f2 g4 | d8 _e4 | _e4 d8 | c8 e4 | f4 d8 | %23
 c8 A4 | G4 d8 | c8 z4 | G4 A2 G2 B2 c2 | d3 e ^f4 g4 | z2 G2 _A4 G2 c2- | c2 B2 c2 _e2 d2 g2- | %30
 ge f2 g2 c2 d4 | c12- | c12 |] %33
V:4
[K:F] F,8 A,4 | F,4 B,4 G,4 | C4 G,8 | A,2 F,3 E, F,2 B,,4 | C,8 F,4 | F,8 E,2 C,2 | D,4 C,8 | %7
 D,2 F,2 C,8 | z2 F,2 G,2 A,2 F,2 G,2 | D,2 F,2 E,4 D,2 E,2 | C,4 F,2 A,2 G,4 | A,2 C4 F,2 G,4 | %12
 A,3 B, C4 A,4 | G,8 E,2 C,2 | F,8 B,,4 | !fermata!C,8 z4 :| F,8 C4 | A,4 F,8 | A,8 G,4 | G,8 C4 | %20
 C4 G,8 | A,6 B,2 C4 | F,4 G,8 | A,4 F,8 | G,4 D,4 F,4 | C,12- | C,4 F,2 C,2 G,2 F,2 | %27
 z2 G,2 D,2 ^F,2 E,4- | E,4 D,4 E,2 C,2 | E,F, G,2 C,2 G,2 F,A, G,2 | C2 _B,3 C A,2 G,4 | %31
 C,3 D, E,2 F,4 E,D, | C,12 |] %33

